public/svgs/vision/vision-decoration-logo-2.svg

<svg width="1em" height="1em" viewBox="0 0 48 48" fill="current" xmlns="http://www.w3.org/2000/svg">
    <g id="Group">
        <path id="Vector" d="M6.221 11.6588C6.16393 11.6691 6.10687 11.6794 6.0498 11.6896C6.13073 13.003 6.14214 14.3229 6.30711 15.6269C6.64431 18.291 7.63932 20.7927 8.85532 23.2224C9.95926 25.4282 9.66045 27.6162 8.82315 29.7995C8.58763 30.4128 8.0616 30.6322 7.37474 30.4352C6.89125 30.2961 6.43992 30.0656 6 29.8854C6.37663 31.322 9.10952 35.0623 10.4656 35.7802C10.3525 35.4535 10.2425 35.1361 10.1263 34.7982C10.8163 35.404 11.4689 35.9771 12.1215 36.5493C12.1557 36.5223 12.19 36.4961 12.2242 36.4691C12.1174 36.1638 12.0105 35.8576 11.9036 35.5524C12.6652 36.0621 13.4112 36.47 14.3616 36.5895C14.3325 36.3682 14.3118 36.2012 14.2879 36.0331C14.0908 34.6656 14.2433 33.3317 14.8243 32.0538C15.2953 31.0196 15.8919 30.1561 17.2252 29.7454C18.907 29.2273 20.0815 28.0848 20.8182 26.6221C21.2415 25.781 21.5393 24.8989 21.3266 23.9571C21.0413 22.6894 20.9759 21.4041 21.3421 20.1654C21.8734 18.3675 22.4959 16.5884 23.1817 14.8326C24.6799 10.9942 25.3367 7.06717 24.8864 3.00945C24.7992 2.22722 24.6312 1.45245 24.5004 0.673953C24.4568 0.67862 24.4133 0.683287 24.3697 0.687954C24.4745 2.29816 24.3334 3.88783 23.8872 5.44856C22.7221 9.51842 20.5837 13.1729 17.9566 16.6136C16.9938 17.8738 16.0828 19.1498 15.8567 20.774C15.7799 20.6732 15.7322 20.6284 15.7093 20.5752C15.5921 20.2998 15.4697 20.0254 15.368 19.7453C14.4145 17.1177 14.2298 14.4125 14.4674 11.6822C14.7776 8.12664 15.7923 4.71114 17.1743 1.37871C17.3652 0.919451 17.5551 0.460192 17.745 0C17.6298 0.028937 17.5686 0.0802778 17.524 0.140952C15.2009 3.26895 13.2701 6.56871 12.0437 10.1821C11.1919 12.6931 10.6025 15.2367 10.7696 17.8812C10.8194 18.6644 10.9159 19.4447 11.003 20.3539C8.77128 17.6535 7.11536 14.8298 6.221 11.6588ZM44 2.8377C43.8475 2.89837 43.6898 2.94878 43.5445 3.02065C42.0224 3.78142 40.4589 4.48524 38.9887 5.32161C34.741 7.73926 30.9384 10.6199 27.9005 14.2594C26.3441 16.1235 25.0462 18.1099 24.4288 20.4034C24.2286 21.1464 24.0781 21.8988 24.489 22.6362C24.5274 22.7053 24.5347 22.8276 24.4921 22.8892C23.8654 23.8021 23.2429 24.716 22.1826 25.3003C21.9979 25.402 21.8194 25.6186 21.7748 25.8072C21.1419 28.4834 19.6665 30.5771 16.7967 31.7271C16.7095 31.7617 16.6307 31.8139 16.5113 31.8774C17.9795 32.1481 18.3302 32.4375 18.3945 33.6407C18.4661 34.9914 18.0459 36.2628 17.2905 37.4193C16.7832 38.1969 15.9936 38.1773 15.2891 37.367C15.2891 37.7348 15.2269 38.0354 15.3016 38.3061C15.4821 38.9651 15.6502 39.64 15.9573 40.2542C17.1162 42.5673 18.9475 44.4193 21.089 46.0285C22.0186 46.7277 23.024 47.3456 23.9941 48C24.0335 47.9608 24.074 47.9207 24.1134 47.8815C24.0086 47.7293 23.8955 47.5809 23.799 47.4241C23.1392 46.3534 22.3558 45.3275 21.8495 44.2008C20.427 41.0383 20.2859 37.8711 22.3382 34.8495C23.3425 33.3709 24.0626 31.8083 24.4382 30.1188C24.6841 29.0145 25.2039 28.026 25.9063 27.1131C28.358 23.9235 31.6999 21.7 35.5108 19.9908C35.6623 19.9227 35.8148 19.8583 35.9673 19.7929C35.9466 19.7472 35.9269 19.7024 35.9061 19.6566C34.9651 19.9012 34.0188 20.129 33.0861 20.3931C32.1212 20.6666 31.9261 20.5668 31.7829 19.6408C31.7684 19.5493 31.7684 19.455 31.7663 19.3617C31.7259 18.0287 32.1326 16.7797 32.698 15.57C34.0033 12.7734 35.9601 10.3557 38.1472 8.07716C39.9453 6.20373 41.9218 4.49364 44 2.8377ZM31.1044 30.7003C31.9126 27.7431 34.4048 26.3859 37.2477 25.2116C33.7138 25.1341 30.6717 25.8828 28.3798 28.3396C29.5927 27.5228 30.928 26.9245 32.4968 26.4708C32.3598 26.6127 32.3245 26.6678 32.2727 26.7014C30.5265 27.843 29.2233 29.3412 28.0094 30.9216C27.2945 31.8522 26.5485 32.767 25.7496 33.6398C24.7245 34.7599 23.7482 35.9015 23.1153 37.2466C22.0134 39.5877 21.9968 41.9932 22.6806 44.4174C22.913 45.2407 23.2813 46.0323 23.5884 46.8378C23.6455 46.821 23.7036 46.8033 23.7607 46.7865C23.7482 46.7128 23.743 46.6372 23.7202 46.5662C23.2886 45.1838 23.2025 43.7799 23.4546 42.3657C23.7461 40.7303 24.4475 39.2657 25.8181 38.1119C26.3441 37.6685 26.9324 37.3157 27.7272 37.1934C27.4968 38.1605 27.721 38.995 28.2667 39.8482C28.5987 38.7289 29.1082 37.7806 30.0492 37.0599C31.0515 36.2926 32.1658 36.1218 33.416 36.6156C33.4389 36.5633 33.4606 36.5111 33.4835 36.4579C33.0145 35.9557 32.5455 35.4535 32.0579 34.9307C32.8475 34.1868 33.8954 33.9534 35.0429 33.9319C33.9545 33.3243 32.8153 33.0396 31.4945 33.2533C32.0465 32.0426 33.111 31.3323 34.1527 30.6042C34.1309 30.565 34.1091 30.5258 34.0863 30.4866C33.1442 30.5538 32.2031 30.621 31.1044 30.7003ZM36.0171 20.0048C33.0602 21.9035 30.734 24.3043 28.9504 27.1392C29.9776 26.385 31.0432 25.7232 32.3712 25.4833C32.4843 25.4627 32.5715 25.2602 32.641 25.1295C33.1463 24.182 33.5748 23.1944 34.1631 22.2908C34.6912 21.4806 35.3925 20.7628 36.0171 20.0048Z" fill="current"/>
    </g>
</svg>

<svg xmlns="http://www.w3.org/2000/svg" width="1em" height="1em" fill="current" viewBox="0 0 48 48"><path d="m6.221 11.659-.171.03c.08 1.314.092 2.634.257 3.938.337 2.664 1.332 5.166 2.548 7.595 1.104 2.206.805 4.394-.032 6.577-.235.614-.761.833-1.448.636-.484-.139-.935-.37-1.375-.55.377 1.437 3.11 5.177 4.466 5.895l-.34-.982 1.995 1.751.103-.08-.32-.917c.761.51 1.507.918 2.458 1.038-.03-.222-.05-.389-.074-.557-.197-1.367-.045-2.701.536-3.98.471-1.033 1.068-1.897 2.401-2.308 1.682-.518 2.856-1.66 3.593-3.123.423-.841.721-1.723.509-2.665-.286-1.268-.351-2.553.015-3.792a66 66 0 0 1 1.84-5.332c1.498-3.839 2.155-7.766 1.704-11.824-.087-.782-.255-1.557-.386-2.335l-.13.014c.104 1.61-.037 3.2-.483 4.76-1.165 4.07-3.303 7.725-5.93 11.166-.963 1.26-1.874 2.536-2.1 4.16-.077-.1-.125-.146-.148-.199-.117-.275-.24-.55-.341-.83-.953-2.627-1.138-5.333-.9-8.063.31-3.555 1.324-6.97 2.706-10.303L17.745 0a.36.36 0 0 0-.221.141c-2.323 3.128-4.254 6.428-5.48 10.041-.852 2.511-1.442 5.055-1.274 7.7.05.782.146 1.563.233 2.472-2.232-2.7-3.888-5.524-4.782-8.695M44 2.838c-.153.06-.31.11-.456.183-1.522.76-3.085 1.464-4.555 2.3C34.74 7.74 30.939 10.62 27.9 14.26c-1.557 1.864-2.855 3.85-3.472 6.144-.2.743-.35 1.496.06 2.233.038.07.046.192.003.253-.627.913-1.25 1.827-2.31 2.411-.184.102-.363.319-.407.507-.633 2.676-2.108 4.77-4.978 5.92-.088.035-.166.087-.286.15 1.469.271 1.82.56 1.884 1.764.071 1.35-.35 2.622-1.104 3.778-.508.778-1.297.758-2.002-.052 0 .368-.062.668.013.94.18.658.348 1.333.655 1.947 1.16 2.313 2.99 4.165 5.132 5.775.93.699 1.935 1.317 2.905 1.971l.12-.118c-.105-.153-.219-.301-.315-.458-.66-1.07-1.443-2.096-1.95-3.223-1.422-3.163-1.563-6.33.49-9.352 1.004-1.478 1.724-3.04 2.1-4.73.245-1.104.765-2.093 1.467-3.006 2.452-3.19 5.794-5.413 9.605-7.122q.227-.101.456-.198l-.06-.136c-.942.244-1.888.472-2.82.736-.966.274-1.16.174-1.304-.752-.015-.092-.015-.186-.017-.28-.04-1.332.367-2.581.932-3.791 1.305-2.797 3.262-5.214 5.45-7.493 1.797-1.873 3.774-3.583 5.852-5.24M31.104 30.7c.809-2.957 3.3-4.314 6.144-5.488-3.534-.078-6.576.67-8.868 3.128 1.213-.817 2.548-1.416 4.117-1.87-.137.143-.172.198-.224.231-1.747 1.142-3.05 2.64-4.264 4.22-.715.931-1.46 1.846-2.26 2.719-1.024 1.12-2 2.261-2.634 3.607-1.102 2.34-1.118 4.746-.434 7.17.232.824.6 1.615.907 2.42l.173-.05c-.013-.074-.018-.15-.04-.22a8.76 8.76 0 0 1-.266-4.201c.291-1.636.993-3.1 2.363-4.254.526-.444 1.114-.796 1.91-.919-.231.968-.007 1.802.539 2.655.332-1.12.841-2.067 1.782-2.788 1.003-.767 2.117-.938 3.367-.444l.068-.158-1.426-1.527c.79-.744 1.837-.978 2.985-1-1.088-.607-2.228-.891-3.549-.678.553-1.21 1.617-1.92 2.659-2.649l-.067-.117zm4.913-10.695a22.8 22.8 0 0 0-7.067 7.134c1.028-.754 2.093-1.416 3.421-1.656.113-.02.2-.223.27-.354.505-.947.934-1.935 1.522-2.838.528-.81 1.23-1.528 1.854-2.286"/></svg>
